src/pos-icons/onepassword.svg

<svg height="24" viewBox="0 0 24 24" width="24" xmlns="http://www.w3.org/2000/svg"><path d="m12 1c-6.08 0-11 4.92-11 11s4.92 11 11 11 11-4.92 11-11-4.92-11-11-11m0 19a8 8 0 0 1 -8-8 8 8 0 0 1 8-8 8 8 0 0 1 8 8 8 8 0 0 1 -8 8m1-6.5c0 .63.4 1.2 1 1.41v3.09h-4v-6.09c.78-.27 1.19-1.11.93-1.91-.15-.42-.49-.76-.93-.91v-3.09h4v6.09c-.6.21-1 .78-1 1.41z"/></svg>

<?xml version="1.0" encoding="UTF-8"?><!DOCTYPE svg PUBLIC "-//W3C//DTD SVG 1.1//EN" "http://www.w3.org/Graphics/SVG/1.1/DTD/svg11.dtd"><svg xmlns="http://www.w3.org/2000/svg" xmlns:xlink="http://www.w3.org/1999/xlink" version="1.1" id="mdi-onepassword" width="24" height="24" viewBox="0 0 24 24"><path d="M12,1C5.92,1 1,5.92 1,12C1,18.08 5.92,23 12,23C18.08,23 23,18.08 23,12C23,5.92 18.08,1 12,1M12,20A8,8 0 0,1 4,12A8,8 0 0,1 12,4A8,8 0 0,1 20,12A8,8 0 0,1 12,20M13,13.5C13,14.13 13.4,14.7 14,14.91V18H10V11.91C10.78,11.64 11.19,10.8 10.93,10C10.78,9.58 10.44,9.24 10,9.09V6H14V12.09C13.4,12.3 13,12.87 13,13.5Z" /></svg>
